remix/Buildings/community-line.svg

<svg viewBox="0 0 24 24" fill="currentColor" xmlns="http://www.w3.org/2000/svg"><path d="M21 21H3C2.44772 21 2 20.5523 2 20V12.4868C2 12.1978 2.12501 11.9229 2.34282 11.733L6 8.54435V4C6 3.44772 6.44772 3 7 3H21C21.5523 3 22 3.44772 22 4V20C22 20.5523 21.5523 21 21 21ZM9 19H12V12.9416L8 9.45402L4 12.9416V19H7V15H9V19ZM14 19H20V5H8V7.12729C8.23444 7.12729 8.46888 7.20938 8.65718 7.37355L13.6572 11.733C13.875 11.9229 14 12.1978 14 12.4868V19ZM16 11H18V13H16V11ZM16 15H18V17H16V15ZM16 7H18V9H16V7ZM12 7H14V9H12V7Z"/></svg>

<svg viewBox="0 0 24 24" xmlns="http://www.w3.org/2000/svg"><path fill="none" d="M0 0h24v24H0Z"/><path d="M21 21H3v0c-.56 0-1-.45-1-1v-7.513 0c-.01-.29.12-.57.34-.76l3.65-3.19V3.98v0c0-.56.44-1 1-1h14v0c.55 0 1 .44 1 1v16 0c0 .55-.45 1-1 1ZM9 19h3v-6.058l-4-3.49 -4 3.48v6.058h3v-4h2v4Zm5 0h6V5H8v2.12c.23 0 .46.08.657.24l5 4.359v0c.21.18.34.46.34.75v6.513Zm2-8h2v2h-2v-2Zm0 4h2v2h-2v-2Zm0-8h2v2h-2V7Zm-4 0h2v2h-2V7Z"/></svg>
